src/app/print/link-list/images/fnac.svg

<?xml version="1.0" standalone="no"?>
<!DOCTYPE svg PUBLIC "-//W3C//DTD SVG 1.0//EN" "http://www.w3.org/TR/2001/REC-SVG-20010904/DTD/svg10.dtd">
<svg xmlns="http://www.w3.org/2000/svg" xmlns:xlink="http://www.w3.org/1999/xlink" id="body_1" width="50" height="52">

<g transform="matrix(0.10018073 0 0 0.10018073 -0 0.19855157)">
	<g>
        <path d="M287.471 208.043C 287.471 218.121 297.198 220.594 308.11002 220.594C 319.497 220.594 339.39102 216.43199 339.39102 189.883C 333.696 193.877 317.83603 194.067 307.39902 195.588C 296.959 197.299 287.471 198.152 287.471 208.043z" stroke="none" fill="#EBB300" fill-rule="nonzero" />
        <path d="M144.246 137.674L158.453 137.674L158.453 151.36699L159.078 151.36699C 166.578 140.33598 188.328 135.33199 200.828 135.33199C 232.289 135.33199 250.828 151.17798 250.828 175.51999L250.828 175.51999L250.828 236L221.244 236L221.244 180.465C 221.244 164.299 204.58 156 190.828 156C 174.787 156 159.912 164.49 159.912 184.459L159.912 184.459L159.912 236L130.326 236L130.326 155.73999L84.828 155.73999L84.828 236L57.244 236L57.244 155.73999L44.977 155.73999L0 441.436L429.604 515.098L475.708 222.24301C 465.46002 232.973 449.337 238.66301 429.411 238.66301C 393.17902 238.66301 368.79202 217.74301 368.79202 188.26501C 368.79202 157.64401 391.08902 135.01302 430.10803 135.01302C 455.14703 135.01302 478.36005 144.52501 484.86804 164.05801L484.86804 164.05801L499.09805 73.66302L69.496 0L47.822 137.674L57.244 137.674L57.244 130.067C 57.244 112.76 72.828 92.667 106.828 92.667C 129.496 92.667 157.496 98.667 157.496 128.66699L157.496 128.66699L131.496 128.66699C 131.496 118 114.828 114 106.828 114C 95.496 114 84.828 123.6 84.828 131.77701L84.828 131.77701L84.828 137.673L130.326 137.673L144.246 137.673L144.246 137.674zM367.074 237.332L338.154 237.332L338.154 226.49C 327.478 235.429 310.47998 238.662 295.537 238.662C 272.289 238.662 253.78499 229.34401 253.78499 209.183C 253.78499 186.931 274.65997 181.605 295.537 179.324C 316.17398 176.851 335.391 177.42201 335.391 166.39C 335.391 154.79 325.426 153.077 313.565 153.077C 300.756 153.077 292.454 157.261 291.266 167.911L291.266 167.911L257.58 167.911C 259.478 142.618 285.707 135.01099 313.22598 135.01099C 337.65997 135.01099 367.07397 143.38399 367.07397 166.96799L367.07397 166.96799L367.07397 237.332z" stroke="none" fill="#EBB300" fill-rule="nonzero" />
        <path d="M429.875 155.361C 408.74 155.361 401.771 172.857 401.771 187.312C 401.771 201.384 408.507 218.312 429.177 218.312C 444.507 218.312 453.333 210.32399 455.423 198.341L455.423 198.341L479.46802 198.341L483.57 172.28601L454.26102 172.28601C 452.172 161.256 443.578 155.361 429.875 155.361z" stroke="none" fill="#EBB300" fill-rule="nonzero" />
	</g>
</g>
</svg>

<?xml version="1.0" encoding="UTF-8"?>
<!-- Generator: Adobe Illustrator 12.0.1, SVG Export Plug-In . SVG Version: 6.00 Build 51448)  -->
<!DOCTYPE svg PUBLIC "-//W3C//DTD SVG 1.1//EN" "http://www.w3.org/Graphics/SVG/1.1/DTD/svg11.dtd">
<svg version="1.1" id="Layer_1" xmlns="http://www.w3.org/2000/svg" xmlns:xlink="http://www.w3.org/1999/xlink" width="499.098" height="515.098" viewBox="0 0 499.098 515.098" overflow="visible" enable-background="new 0 0 499.098 515.098" xml:space="preserve">
<g>
	<path fill="#EBB300" d="M287.471,208.043c0,10.078,9.727,12.551,20.639,12.551c11.387,0,31.281-4.162,31.281-30.711   c-5.695,3.994-21.555,4.184-31.992,5.705C296.959,197.299,287.471,198.152,287.471,208.043z"/>
	<path fill="#EBB300" d="M144.246,137.674h14.207v13.693h0.625c7.5-11.031,29.25-16.035,41.75-16.035c31.461,0,50,15.846,50,40.188   V236h-29.584v-55.535c0-16.166-16.664-24.465-30.416-24.465c-16.041,0-30.916,8.49-30.916,28.459V236h-29.586v-80.26H84.828V236   H57.244v-80.26H44.977L0,441.436l429.604,73.662l46.104-292.855c-10.248,10.73-26.371,16.42-46.297,16.42   c-36.232,0-60.619-20.92-60.619-50.398c0-30.621,22.297-53.252,61.316-53.252c25.039,0,48.252,9.512,54.76,29.045l14.23-90.395   L69.496,0L47.822,137.674h9.422v-7.607c0-17.307,15.584-37.4,49.584-37.4c22.668,0,50.668,6,50.668,36h-26   C131.496,118,114.828,114,106.828,114c-11.332,0-22,9.6-22,17.777v5.896h45.498H144.246z M367.074,237.332h-28.92V226.49   c-10.676,8.939-27.674,12.172-42.617,12.172c-23.248,0-41.752-9.318-41.752-29.479c0-22.252,20.875-27.578,41.752-29.859   c20.637-2.473,39.854-1.902,39.854-12.934c0-11.6-9.965-13.313-21.826-13.313c-12.809,0-21.111,4.184-22.299,14.834H257.58   c1.898-25.293,28.127-32.9,55.646-32.9c24.434,0,53.848,8.373,53.848,31.957V237.332z"/>
	<path fill="#EBB300" d="M429.875,155.361c-21.135,0-28.104,17.496-28.104,31.951c0,14.072,6.736,31,27.406,31   c15.33,0,24.156-7.988,26.246-19.971h24.045l4.102-26.055h-29.309C452.172,161.256,443.578,155.361,429.875,155.361z"/>
</g>
</svg>
